components/AppDevelopmentCommon/Svg/svgs/cloudNetwork.svg

<svg width="40" height="40" viewBox="0 0 40 40" fill="none" xmlns="http://www.w3.org/2000/svg">
<path d="M36.348 28.4088C35.2864 28.4088 34.3859 29.1112 34.0866 30.0758H30.8468V22.3062H32.4772C32.5881 22.3111 32.6922 22.3135 32.7951 22.3135C32.9014 22.3135 33.0093 22.3109 33.1244 22.3058C33.1262 22.3056 33.1279 22.3055 33.1297 22.3055C36.9771 22.1291 39.9909 18.9718 39.9909 15.1177C39.9909 12.125 38.1697 9.48567 35.4136 8.41329C35.0924 6.18749 34.0096 4.14198 32.3344 2.61343C30.5357 0.972049 28.2029 0.0681152 25.766 0.0681152C22.7038 0.0681152 19.8507 1.49289 18.01 3.91069C17.0064 3.4018 15.8947 3.13534 14.7585 3.13534C11.6681 3.13534 8.95835 5.09031 7.96217 7.96165C7.71028 7.93518 7.4567 7.9218 7.20372 7.9218C3.23586 7.9218 0.0078125 11.1498 0.0078125 15.1177C0.0078125 19.0854 3.23586 22.3135 7.2037 22.3135C7.32355 22.3135 7.44721 22.3103 7.57241 22.3038C7.59186 22.3055 7.61148 22.3062 7.6313 22.3062H9.24275V30.0758H6.00297C5.7037 29.1112 4.80312 28.4088 3.74161 28.4088C2.43639 28.4088 1.37448 29.4707 1.37448 30.7759C1.37448 32.0811 2.43639 33.143 3.74161 33.143C4.80315 33.143 5.7037 32.4406 6.00297 31.476H9.94286C10.3295 31.476 10.643 31.1626 10.643 30.7759V22.3062H14.966V35.3491C14.0014 35.6483 13.2989 36.5488 13.2989 37.6105C13.2989 38.9157 14.3609 39.9776 15.6661 39.9776C16.9713 39.9776 18.0332 38.9157 18.0332 37.6105C18.0332 36.5488 17.3307 35.6483 16.3662 35.3491V22.3062H23.7232V35.3491C22.7587 35.6483 22.0562 36.5488 22.0562 37.6105C22.0562 38.9157 23.1181 39.9776 24.4233 39.9776C25.7286 39.9776 26.7905 38.9157 26.7905 37.6105C26.7905 36.5488 26.088 35.6483 25.1235 35.3491V22.3062H29.4465V30.7759C29.4465 31.1626 29.7599 31.476 30.1466 31.476H34.0865C34.3858 32.4405 35.2863 33.143 36.3479 33.143C37.6531 33.143 38.715 32.0811 38.715 30.7759C38.7151 29.4707 37.6532 28.4088 36.348 28.4088ZM3.74161 31.7428C3.2085 31.7428 2.77472 31.309 2.77472 30.7759C2.77472 30.2428 3.2085 29.809 3.74161 29.809C4.27472 29.809 4.7085 30.2428 4.7085 30.7759C4.7085 31.309 4.27472 31.7428 3.74161 31.7428ZM15.6661 38.5774C15.133 38.5774 14.6992 38.1436 14.6992 37.6105C14.6992 37.0774 15.133 36.6436 15.6661 36.6436C16.1992 36.6436 16.633 37.0774 16.633 37.6105C16.633 38.1436 16.1992 38.5774 15.6661 38.5774ZM24.4234 38.5774C23.8903 38.5774 23.4566 38.1436 23.4566 37.6105C23.4566 37.0774 23.8903 36.6436 24.4234 36.6436C24.9565 36.6436 25.3903 37.0774 25.3903 37.6105C25.3903 38.1436 24.9565 38.5774 24.4234 38.5774ZM7.58599 20.9004C7.45519 20.9089 7.32657 20.9132 7.20368 20.9132C4.00797 20.9132 1.40806 18.3133 1.40806 15.1177C1.40806 11.922 4.00797 9.32205 7.20368 9.32205C7.57943 9.32205 7.95646 9.35858 8.3243 9.43056C8.69028 9.50167 9.04719 9.27496 9.13781 8.91396C9.78521 6.33603 12.0965 4.5356 14.7584 4.5356C15.8533 4.5356 16.9196 4.84249 17.8418 5.42318C18.1636 5.62576 18.5888 5.53443 18.7987 5.21698C20.3516 2.86967 22.9561 1.46838 25.766 1.46838C30.0841 1.46838 33.6557 4.70458 34.074 8.99614C34.1011 9.2746 34.2914 9.5102 34.558 9.59527C36.97 10.3647 38.5906 12.584 38.5906 15.1177C38.5906 18.2205 36.1658 20.7625 33.0695 20.9066C33.068 20.9066 33.0667 20.9067 33.0652 20.9068C32.874 20.9154 32.7153 20.9154 32.5249 20.9068C32.5143 20.9063 32.5035 20.906 32.4929 20.906H7.73037C7.68299 20.8992 7.63464 20.8973 7.58599 20.9004ZM36.348 31.7428C35.8149 31.7428 35.3811 31.309 35.3811 30.7759C35.3811 30.2428 35.8149 29.809 36.348 29.809C36.8811 29.809 37.3149 30.2428 37.3149 30.7759C37.3149 31.309 36.8811 31.7428 36.348 31.7428Z" fill="#161616"/>
</svg>

<svg xmlns="http://www.w3.org/2000/svg" width="40" height="40" fill="none">
  <path fill="#161616" d="M36.348 28.409a2.371 2.371 0 0 0-2.261 1.667h-3.24v-7.77h1.63a7.147 7.147 0 0 0 .653 0 7.182 7.182 0 0 0 6.86-7.188 7.17 7.17 0 0 0-4.576-6.705 9.724 9.724 0 0 0-3.08-5.8A9.723 9.723 0 0 0 25.766.068a9.727 9.727 0 0 0-7.756 3.843 7.182 7.182 0 0 0-3.252-.776c-3.09 0-5.8 1.955-6.796 4.827a7.263 7.263 0 0 0-.758-.04c-3.968 0-7.196 3.228-7.196 7.196 0 3.967 3.228 7.196 7.196 7.196.12 0 .243-.004.368-.01.02.002.04.002.06.002h1.61v7.77H6.004a2.371 2.371 0 0 0-2.261-1.667 2.37 2.37 0 0 0-2.368 2.367 2.37 2.37 0 0 0 2.368 2.367 2.371 2.371 0 0 0 2.261-1.667h3.94a.7.7 0 0 0 .7-.7v-8.47h4.323V35.35c-.965.3-1.667 1.2-1.667 2.262a2.37 2.37 0 0 0 2.367 2.367 2.37 2.37 0 0 0 2.367-2.367 2.371 2.371 0 0 0-1.667-2.262V22.306h7.357V35.35c-.964.3-1.667 1.2-1.667 2.262a2.37 2.37 0 0 0 2.367 2.367 2.37 2.37 0 0 0 2.368-2.367 2.371 2.371 0 0 0-1.668-2.262V22.306h4.323v8.47a.7.7 0 0 0 .7.7h3.94c.3.965 1.2 1.667 2.262 1.667a2.37 2.37 0 0 0 2.367-2.367 2.37 2.37 0 0 0-2.367-2.367ZM3.742 31.743a.968.968 0 0 1 0-1.934.968.968 0 0 1 0 1.934Zm11.924 6.834a.968.968 0 0 1 0-1.933.968.968 0 0 1 0 1.933Zm8.757 0a.968.968 0 0 1 0-1.933.968.968 0 0 1 0 1.933ZM7.586 20.9a5.802 5.802 0 0 1-6.178-5.783 5.802 5.802 0 0 1 6.916-5.686.7.7 0 0 0 .814-.517 5.785 5.785 0 0 1 5.62-4.378c1.095 0 2.162.306 3.084.887a.7.7 0 0 0 .957-.206 8.335 8.335 0 0 1 6.967-3.749 8.312 8.312 0 0 1 8.308 7.528.7.7 0 0 0 .484.6 5.776 5.776 0 0 1 4.033 5.522 5.784 5.784 0 0 1-5.522 5.789h-.004a5.66 5.66 0 0 1-.572-.001H7.73a.702.702 0 0 0-.144-.006Zm28.762 10.843a.968.968 0 0 1 0-1.934.968.968 0 0 1 0 1.934Z" />
</svg>
